X: 18667
T: I'll Learn It By Tomorrow
R: slip jig
M: 9/8
K: Gmajor
GAB BAG BAG|E/F/GA dAG {E}FED|EcB BAG AGD|E/F/GA dcB AA/A/A|
GAB BAG BAG|E/F/GA dAG {E}FED|EFG FGA GAB|AA/A/A GFD EE/E/D||
EFG GFE GFE|DE/F/G ADG FED|EFG GFE GFE|DEB, A,B,D EB,D|
EFG GFE GFE|DE/F/G ADG FED|EFG GFE GFE|DEB, DGB edB||

